COLOR/action 16/16/distribute-horizontal-center.svg

<svg height="16" viewBox="0 0 16 16" width="16" xmlns="http://www.w3.org/2000/svg"><path d="m2.8361131 16h1.1344452v-11.4302408h-1.1344452z" fill="#e95420" stroke-width=".900242"/><path d="m0 13.713952h1.7016678 5.1050036v-8.3821768h-1.7016679-5.1050035v1.39703z" fill="#1a7fd4" stroke-width="1.541843"/><path d="m11.911675 4.5697592h1.134445v11.4302408h-1.134445z" fill="#e95420" stroke-width=".900242"/><path d="m9.075562 5.3317752h1.701668 5.105003v9.9062088h-1.701668-5.105003v-1.651035z" fill="#1a7fd4" stroke-width="1.67616"/><g fill="#c43ac4" fill-rule="evenodd" stroke-width=".990045" transform="matrix(.75629682 0 0 .76201605 -1.134445 -.764353)"><path d="m4.1758924 1.0030674-2.6758924 2.7208586 2.6758924 2.776074v-2.199386h3.4798224v-1.1012275h-2.1592889-1.3205335z"/><path d="m19.979822 6.5 2.675893-2.720859-2.675893-2.7760739v2.1993864h-3.479822v1.1012275h2.159289 1.320533z"/></g></svg>

<?xml version="1.0" encoding="UTF-8" standalone="no"?>
<svg
   xmlns:dc="http://purl.org/dc/elements/1.1/"
   xmlns:cc="http://creativecommons.org/ns#"
   xmlns:rdf="http://www.w3.org/1999/02/22-rdf-syntax-ns#"
   xmlns:svg="http://www.w3.org/2000/svg"
   xmlns="http://www.w3.org/2000/svg"
   xmlns:sodipodi="http://sodipodi.sourceforge.net/DTD/sodipodi-0.dtd"
   xmlns:inkscape="http://www.inkscape.org/namespaces/inkscape"
   viewBox="0 0 16 16"
   version="1.1"
   id="svg16"
   sodipodi:docname="distribute-horizontal-center.svg"
   width="16"
   height="16"
   inkscape:version="0.92.4 (5da689c313, 2019-01-14)">
  <metadata
     id="metadata22">
    <rdf:RDF>
      <cc:Work
         rdf:about="">
        <dc:format>image/svg+xml</dc:format>
        <dc:type
           rdf:resource="http://purl.org/dc/dcmitype/StillImage" />
        <dc:title></dc:title>
      </cc:Work>
    </rdf:RDF>
  </metadata>
  <defs
     id="defs20" />
  <sodipodi:namedview
     pagecolor="#ffffff"
     bordercolor="#666666"
     borderopacity="1"
     objecttolerance="10"
     gridtolerance="10"
     guidetolerance="10"
     inkscape:pageopacity="0"
     inkscape:pageshadow="2"
     inkscape:window-width="1124"
     inkscape:window-height="692"
     id="namedview18"
     showgrid="false"
     inkscape:zoom="9.8333333"
     inkscape:cx="12"
     inkscape:cy="12"
     inkscape:window-x="0"
     inkscape:window-y="27"
     inkscape:window-maximized="0"
     inkscape:current-layer="svg16" />
  <path
     d="M 2.8361131,16 H 3.9705583 V 4.5697592 H 2.8361131 Z"
     id="path2"
     inkscape:connector-curvature="0"
     style="fill:#e95420;stroke-width:0.90024227" />
  <path
     d="M 0,13.713952 H 1.7016678 6.8066714 V 5.3317752 H 5.1050035 0 v 1.39703 z"
     id="path4"
     inkscape:connector-curvature="0"
     style="fill:#1a7fd4;stroke-width:1.54184341" />
  <path
     d="M 11.911675,4.5697592 H 13.04612 V 16 h -1.134445 z"
     id="path6"
     inkscape:connector-curvature="0"
     style="fill:#e95420;stroke-width:0.90024227" />
  <path
     d="m 9.075562,5.3317752 h 1.701668 5.105003 V 15.237984 H 14.180565 9.075562 v -1.651035 z"
     id="path8"
     inkscape:connector-curvature="0"
     style="fill:#1a7fd4;stroke-width:1.6761601" />
  <g
     id="g14"
     style="fill:#c43ac4;fill-rule:evenodd;stroke-width:0.99004501"
     transform="matrix(0.75629682,0,0,0.76201605,-1.1344452,-0.76435323)">
    <path
       d="M 4.1758924,1.0030674 1.5,3.723926 4.1758924,6.5 V 4.300614 H 7.6557148 V 3.1993865 H 5.4964259 4.1758924 Z"
       id="path10"
       inkscape:connector-curvature="0" />
    <path
       d="M 19.979822,6.5 22.655715,3.779141 19.979822,1.0030671 V 3.2024535 H 16.5 V 4.303681 h 2.159289 1.320533 z"
       id="path12"
       inkscape:connector-curvature="0" />
  </g>
</svg>
